Newaita-dark/actions/22/draw-text.svg

<svg height="22" viewBox="0 0 22 22" width="22" xmlns="http://www.w3.org/2000/svg"><g fill="#e0e0e0"><path d="m10.460938 4.71875h.910156c.25 0 .453125.203125.453125.457031v10.003907c0 .25-.203125.457031-.453125.457031h-.910156c-.25 0-.457032-.207031-.457032-.457031v-10.003907c0-.253906.207032-.457031.457032-.457031zm0 0"/><path d="m6.820312 4.71875h8.1875c.25 0 .457032.203125.457032.457031v.910157c0 .25-.207032.453124-.457032.453124h-8.1875c-.25 0-.453124-.203124-.453124-.453124v-.910157c0-.253906.203124-.457031.453124-.457031zm0 0"/><path d="m4.09375 2.902344c.25 0 .453125.203125.453125.453125v15.464843c0 .25-.203125.453126-.453125.453126s-.457031-.203126-.457031-.453126v-15.464843c0-.25.207031-.453125.457031-.453125zm0 0"/><path d="m17.738281 2.902344c.25 0 .453125.203125.453125.453125v15.464843c0 .25-.203125.453126-.453125.453126-.253906 0-.457031-.203126-.457031-.453126v-15.464843c0-.25.203125-.453125.457031-.453125zm0 0"/><path d="m19.101562 17.910156c0 .25-.203124.453125-.453124.453125h-15.464844c-.25 0-.453125-.203125-.453125-.453125 0-.253906.203125-.457031.453125-.457031h15.464844c.25 0 .453124.203125.453124.457031zm0 0"/><path d="m6.820312 4.71875h.910157c.253906 0 .457031.203125.457031.457031v1.816407c0 .253906-.203125.457031-.457031.457031h-.910157c-.25 0-.453124-.203125-.453124-.457031v-1.816407c0-.253906.203124-.457031.453124-.457031zm0 0"/><path d="m14.097656 4.71875h.910156c.25 0 .457032.203125.457032.457031v1.816407c0 .253906-.207032.457031-.457032.457031h-.910156c-.25 0-.453125-.203125-.453125-.457031v-1.816407c0-.253906.203125-.457031.453125-.457031zm0 0"/></g></svg>

<svg xmlns="http://www.w3.org/2000/svg" xmlns:xlink="http://www.w3.org/1999/xlink" width="22px" height="22px" viewBox="0 0 22 22" version="1.1">
<g id="surface1">
     <defs>
  <style id="current-color-scheme" type="text/css">
   .ColorScheme-Text { color:#eeeeee; } .ColorScheme-Highlight { color:#424242; }
  </style>
 </defs>
<path style="fill:currentColor" class="ColorScheme-Text" d="M 10.460938 4.71875 L 11.371094 4.71875 C 11.621094 4.71875 11.824219 4.921875 11.824219 5.175781 L 11.824219 15.179688 C 11.824219 15.429688 11.621094 15.636719 11.371094 15.636719 L 10.460938 15.636719 C 10.210938 15.636719 10.003906 15.429688 10.003906 15.179688 L 10.003906 5.175781 C 10.003906 4.921875 10.210938 4.71875 10.460938 4.71875 Z M 10.460938 4.71875 "/>
     <defs>
  <style id="current-color-scheme" type="text/css">
   .ColorScheme-Text { color:#eeeeee; } .ColorScheme-Highlight { color:#424242; }
  </style>
 </defs>
<path style="fill:currentColor" class="ColorScheme-Text" d="M 6.820312 4.71875 L 15.007812 4.71875 C 15.257812 4.71875 15.464844 4.921875 15.464844 5.175781 L 15.464844 6.085938 C 15.464844 6.335938 15.257812 6.539062 15.007812 6.539062 L 6.820312 6.539062 C 6.570312 6.539062 6.367188 6.335938 6.367188 6.085938 L 6.367188 5.175781 C 6.367188 4.921875 6.570312 4.71875 6.820312 4.71875 Z M 6.820312 4.71875 "/>
     <defs>
  <style id="current-color-scheme" type="text/css">
   .ColorScheme-Text { color:#eeeeee; } .ColorScheme-Highlight { color:#424242; }
  </style>
 </defs>
<path style="fill:currentColor" class="ColorScheme-Text" d="M 4.09375 2.902344 C 4.34375 2.902344 4.546875 3.105469 4.546875 3.355469 L 4.546875 18.820312 C 4.546875 19.070312 4.34375 19.273438 4.09375 19.273438 C 3.84375 19.273438 3.636719 19.070312 3.636719 18.820312 L 3.636719 3.355469 C 3.636719 3.105469 3.84375 2.902344 4.09375 2.902344 Z M 4.09375 2.902344 "/>
     <defs>
  <style id="current-color-scheme" type="text/css">
   .ColorScheme-Text { color:#eeeeee; } .ColorScheme-Highlight { color:#424242; }
  </style>
 </defs>
<path style="fill:currentColor" class="ColorScheme-Text" d="M 17.738281 2.902344 C 17.988281 2.902344 18.191406 3.105469 18.191406 3.355469 L 18.191406 18.820312 C 18.191406 19.070312 17.988281 19.273438 17.738281 19.273438 C 17.484375 19.273438 17.28125 19.070312 17.28125 18.820312 L 17.28125 3.355469 C 17.28125 3.105469 17.484375 2.902344 17.738281 2.902344 Z M 17.738281 2.902344 "/>
     <defs>
  <style id="current-color-scheme" type="text/css">
   .ColorScheme-Text { color:#eeeeee; } .ColorScheme-Highlight { color:#424242; }
  </style>
 </defs>
<path style="fill:currentColor" class="ColorScheme-Text" d="M 19.101562 17.910156 C 19.101562 18.160156 18.898438 18.363281 18.648438 18.363281 L 3.183594 18.363281 C 2.933594 18.363281 2.730469 18.160156 2.730469 17.910156 C 2.730469 17.65625 2.933594 17.453125 3.183594 17.453125 L 18.648438 17.453125 C 18.898438 17.453125 19.101562 17.65625 19.101562 17.910156 Z M 19.101562 17.910156 "/>
     <defs>
  <style id="current-color-scheme" type="text/css">
   .ColorScheme-Text { color:#eeeeee; } .ColorScheme-Highlight { color:#424242; }
  </style>
 </defs>
<path style="fill:currentColor" class="ColorScheme-Text" d="M 6.820312 4.71875 L 7.730469 4.71875 C 7.984375 4.71875 8.1875 4.921875 8.1875 5.175781 L 8.1875 6.992188 C 8.1875 7.246094 7.984375 7.449219 7.730469 7.449219 L 6.820312 7.449219 C 6.570312 7.449219 6.367188 7.246094 6.367188 6.992188 L 6.367188 5.175781 C 6.367188 4.921875 6.570312 4.71875 6.820312 4.71875 Z M 6.820312 4.71875 "/>
     <defs>
  <style id="current-color-scheme" type="text/css">
   .ColorScheme-Text { color:#eeeeee; } .ColorScheme-Highlight { color:#424242; }
  </style>
 </defs>
<path style="fill:currentColor" class="ColorScheme-Text" d="M 14.097656 4.71875 L 15.007812 4.71875 C 15.257812 4.71875 15.464844 4.921875 15.464844 5.175781 L 15.464844 6.992188 C 15.464844 7.246094 15.257812 7.449219 15.007812 7.449219 L 14.097656 7.449219 C 13.847656 7.449219 13.644531 7.246094 13.644531 6.992188 L 13.644531 5.175781 C 13.644531 4.921875 13.847656 4.71875 14.097656 4.71875 Z M 14.097656 4.71875 "/>
</g>
</svg>
